twotone/svg/directions_bike.svg

<svg xmlns="http://www.w3.org/2000/svg" width="24" height="24"><path fill="none" d="M0 0h24v24H0V0z"/><g fill="currentColor"><path d="M15.5 5.5c1.1 0 2-.9 2-2s-.9-2-2-2-2 .9-2 2 .9 2 2 2zM5 22c2.8 0 5-2.2 5-5s-2.2-5-5-5-5 2.2-5 5 2.2 5 5 5zm0-8.5c1.9 0 3.5 1.6 3.5 3.5S6.9 20.5 5 20.5 1.5 18.9 1.5 17s1.6-3.5 3.5-3.5z"/><path d="M7.8 11.2L11 14v5h2v-6.2l-2.2-2.3 2.4-2.4.8.8c1.3 1.3 3 2.1 5.1 2.1V9c-1.5 0-2.7-.6-3.6-1.5l-1.9-1.9c-.5-.4-1-.6-1.6-.6s-1.1.2-1.4.6L7.8 8.4c-.4.4-.6.9-.6 1.4 0 .6.2 1.1.6 1.4z"/><path d="M19 12c-2.8 0-5 2.2-5 5s2.2 5 5 5 5-2.2 5-5-2.2-5-5-5zm0 8.5c-1.9 0-3.5-1.6-3.5-3.5s1.6-3.5 3.5-3.5 3.5 1.6 3.5 3.5-1.6 3.5-3.5 3.5z"/></g></svg>

<?xml version="1.0" encoding="utf-8"?>
<!-- Generator: Adobe Illustrator 19.1.0, SVG Export Plug-In . SVG Version: 6.00 Build 0)  -->
<svg version="1.1" xmlns="http://www.w3.org/2000/svg" xmlns:xlink="http://www.w3.org/1999/xlink" x="0px" y="0px" width="24px"
	 height="24px" viewBox="0 0 24 24" enable-background="new 0 0 24 24" xml:space="preserve">
<g id="Bounding_Boxes">
	<path fill="none" d="M0,0h24v24H0V0z"/>
</g>
<g id="Duotone" fill="currentColor">
	<g id="ui_x5F_spec_x5F_header_copy_2">
	</g>
	<g>
		<path d="M15.5,5.5c1.1,0,2-0.9,2-2c0-1.1-0.9-2-2-2s-2,0.9-2,2C13.5,4.6,14.4,5.5,15.5,5.5z"/>
		<path d="M5,22c2.8,0,5-2.2,5-5s-2.2-5-5-5s-5,2.2-5,5S2.2,22,5,22z M5,13.5c1.9,0,3.5,1.6,3.5,3.5c0,1.9-1.6,3.5-3.5,3.5
			S1.5,18.9,1.5,17C1.5,15.1,3.1,13.5,5,13.5z"/>
		<path d="M7.8,11.2L11,14v5h2v-6.2l-2.2-2.3l2.4-2.4L14,8.9c1.3,1.3,3,2.1,5.1,2.1V9c-1.5,0-2.7-0.6-3.6-1.5l-1.9-1.9
			C13.1,5.2,12.6,5,12,5s-1.1,0.2-1.4,0.6L7.8,8.4C7.4,8.8,7.2,9.3,7.2,9.8C7.2,10.4,7.4,10.9,7.8,11.2z"/>
		<path d="M19,12c-2.8,0-5,2.2-5,5s2.2,5,5,5s5-2.2,5-5S21.8,12,19,12z M19,20.5c-1.9,0-3.5-1.6-3.5-3.5c0-1.9,1.6-3.5,3.5-3.5
			s3.5,1.6,3.5,3.5C22.5,18.9,20.9,20.5,19,20.5z"/>
	</g>
</g>
</svg>
